X:1
T:Title
%%score 1 2
L:1/8
Q:1/4=110
M:4/4
K:F
V:1 treble nm="Grand Piano, Treble Clef"
V:2 bass nm="Choir Pad, Sebastian (Hodges) 87.87"
V:1
 [Fc]3 [Fc] [Ec]2 [EB]2 | [FB]2 [FA]2 [FA]2 [EG]2 | [FA]3 [FB] [Fc]2 [FA]2 | G2 [FG]2 [EG]4 | %4
w: By~John~Sebastian~Bach~Hodges~(1830\-1915) * * *||||
 [FA]3 [CA] [^CA]2 [CG]2 | [DG]2 [DF]2 [DF]2 [^CE]2 | [DB]3 [DB] [GB]2 [FA]2 | [FA]2 [EG]2 F4- | %8
w: ||||
 F4 z4 |] %9
w: |
V:2
 A,3 A, [G,B,]2 [G,C]2 | [F,D]2 [F,C]2 [C,C]2 [C,C]2 | [F,C]3 [G,C] [A,C]2 [F,C]2 | %3
 [E,C]2 [D,=B,]2 [C,C]4 | [F,C]3 F, [E,G,]2 [E,A,]2 | [D,B,]2 [D,A,]2 [A,,A,]2 [A,,A,]2 | %6
 [G,B,]3 [F,B,] [E,C]2 [F,C]2 | [C,C]2 [C,B,]2 [F,A,]4- | [F,A,]4 z4 |] %9

